public/avatar/hat/64.svg

<svg xmlns:xlink="http://www.w3.org/1999/xlink" height="92.9" width="100.7" xmlns="http://www.w3.org/2000/svg"><use height="20.15" transform="translate(27.9 42.3)" width="25.7" xlink:href="#a"/><defs><g id="a"><path d="m7.65 12.05-5.85.65-4.85-.55q-2.8-.65-5.05-2.25l-2.65-2 1.55-3.3 7.35 1.25 5.25.75 4.8.7 3.05-.15.9 2.1q-1.7 2.05-4.5 2.8" fill-opacity=".322" fill-rule="evenodd" transform="translate(10.75 7.45)"/><path d="m5.4 3.7.7-2.2.45-1.75.05-1.9v-.55q-1.7 1-1.95.9l-.75-.6-1.05-.85-1.25-3.7q1.05.1 1.9.9l2.65 2.8.45.55q1.15.8 2.9 1.1.7 2.15.65 4.35l4.3 1.55q-.4 3.85-3.45 5.5l-.75-1.1L7.6 5.25l2.55-.65V2.75Q7.9 3.85 5.4 3.7M-8.7 5.65q-1.35-1.5-1.4-3.35-.15-4 1.7-4l3.05.75-.7 2.45 2.6 1.9-1.8.55q-1.75.4-3.45 1.7" fill="#f1db92" fill-rule="evenodd" transform="translate(10.75 7.45)"/><path d="m1.55 3.3.4-1.45L2.3.1l.45-1.9q.25-.85.1-1.45.15.6-.1 1.45L2.3.1l-.35 1.75-.4 1.45-2.1-.65-2.05-.85.5-2.05.35-1.75.3-1.95q.2-.95-.1-1.8l-.2-.25.2.25q.3.85.1 1.8L-1.75-2-2.1-.25l-.5 2.05Q-4.25 1-5.35-.95l1.3-2.8Q-3.4-5.1-1.75-6l1.1-.55q1.2-.5 2.25-.4l1.25 3.7 1.05.85.75.6q.25.1 1.95-.9v.55l-.05 1.9L6.1 1.5l-.7 2.2-.35-.05-3.5-.35M7.6 5.25l2.65 3.45.75 1.1q-1.5.8-3.65 1.1-5.05.2-11.15-2.2-3.35-1.3-4.9-3.05 1.7-1.3 3.45-1.7l1.8-.55Q1.45 6.3 7.6 5.25" fill="#ffc" fill-rule="evenodd" transform="translate(10.75 7.45)"/><path d="m1.55 3.3 3.5.35.35.05q2.5.15 4.75-.95V4.6l-2.55.65Q1.45 6.3-3.45 3.4l-2.6-1.9.7-2.45Q-4.25 1-2.6 1.8l2.05.85 2.1.65" fill="#666" fill-rule="evenodd" transform="translate(10.75 7.45)"/><path d="M2.85-3.25q.15.6-.1 1.45L2.3.1l-.35 1.75-.4 1.45m3.85.4.7-2.2.45-1.75.05-1.9v-.55q-1.7 1-1.95.9l-.75-.6-1.05-.85-1.25-3.7M-1.75-6l.2.25q.3.85.1 1.8L-1.75-2-2.1-.25l-.5 2.05" fill="none" stroke="#f1db92" stroke-linecap="round" stroke-linejoin="round" transform="translate(10.75 7.45)"/><path d="M1.6-6.95q-1.05-.1-2.25.4l-1.1.55q-1.65.9-2.3 2.25l-1.3 2.8-3.05-.75q-1.85 0-1.7 4 .05 1.85 1.4 3.35Q-7.15 7.4-3.8 8.7q6.1 2.4 11.15 2.2Q9.5 10.6 11 9.8q3.05-1.65 3.45-5.5l-4.3-1.55Q10.2.55 9.5-1.6q-1.75-.3-2.9-1.1l-.45-.55-2.65-2.8q-.85-.8-1.9-.9" fill="none" stroke="#a97e01" stroke-linecap="round" stroke-linejoin="round" transform="translate(10.75 7.45)"/></g></defs></svg>

<?xml version="1.0" encoding="UTF-8" standalone="no"?>
<svg xmlns:xlink="http://www.w3.org/1999/xlink" height="92.9px" width="100.7px" xmlns="http://www.w3.org/2000/svg">
  <g transform="matrix(1.0, 0.0, 0.0, 1.0, 38.65, 49.75)">
    <use height="20.15" transform="matrix(1.0, 0.0, 0.0, 1.0, -10.75, -7.45)" width="25.7" xlink:href="#shape0"/>
  </g>
  <defs>
    <g id="shape0" transform="matrix(1.0, 0.0, 0.0, 1.0, 10.75, 7.45)">
      <path d="M7.65 12.05 L1.8 12.7 -3.05 12.15 Q-5.85 11.5 -8.1 9.9 L-10.75 7.9 -9.2 4.6 -1.85 5.85 3.4 6.6 8.2 7.3 11.25 7.15 12.15 9.25 Q10.45 11.3 7.65 12.05" fill="#000000" fill-opacity="0.32156864" fill-rule="evenodd" stroke="none"/>
      <path d="M5.4 3.7 L6.1 1.5 6.55 -0.25 6.6 -2.15 6.6 -2.7 Q4.9 -1.7 4.65 -1.8 L3.9 -2.4 2.85 -3.25 1.6 -6.95 Q2.65 -6.85 3.5 -6.05 L6.15 -3.25 6.6 -2.7 Q7.75 -1.9 9.5 -1.6 10.2 0.55 10.15 2.75 L14.45 4.3 Q14.05 8.15 11.0 9.8 L10.25 8.7 7.6 5.25 10.15 4.6 10.15 2.75 Q7.9 3.85 5.4 3.7 M-8.7 5.65 Q-10.05 4.15 -10.1 2.3 -10.25 -1.7 -8.4 -1.7 L-5.35 -0.95 -6.05 1.5 -3.45 3.4 -5.25 3.95 Q-7.0 4.35 -8.7 5.65" fill="#f1db92" fill-rule="evenodd" stroke="none"/>
      <path d="M1.55 3.3 L1.95 1.85 2.3 0.1 2.75 -1.8 Q3.0 -2.65 2.85 -3.25 3.0 -2.65 2.75 -1.8 L2.3 0.1 1.95 1.85 1.55 3.3 -0.55 2.65 -2.6 1.8 -2.1 -0.25 -1.75 -2.0 -1.45 -3.95 Q-1.25 -4.9 -1.55 -5.75 L-1.75 -6.0 -1.55 -5.75 Q-1.25 -4.9 -1.45 -3.95 L-1.75 -2.0 -2.1 -0.25 -2.6 1.8 Q-4.25 1.0 -5.35 -0.95 L-4.05 -3.75 Q-3.4 -5.1 -1.75 -6.0 L-0.65 -6.55 Q0.55 -7.05 1.6 -6.95 L2.85 -3.25 3.9 -2.4 4.65 -1.8 Q4.9 -1.7 6.6 -2.7 L6.6 -2.15 6.55 -0.25 6.1 1.5 5.4 3.7 5.05 3.65 1.55 3.3 M7.6 5.25 L10.25 8.7 11.0 9.8 Q9.5 10.6 7.35 10.9 2.3 11.1 -3.8 8.7 -7.15 7.4 -8.7 5.65 -7.0 4.35 -5.25 3.95 L-3.45 3.4 Q1.45 6.3 7.6 5.25" fill="#ffffcc" fill-rule="evenodd" stroke="none"/>
      <path d="M1.55 3.3 L5.05 3.65 5.4 3.7 Q7.9 3.85 10.15 2.75 L10.15 4.6 7.6 5.25 Q1.45 6.3 -3.45 3.4 L-6.05 1.5 -5.35 -0.95 Q-4.25 1.0 -2.6 1.8 L-0.55 2.65 1.55 3.3" fill="#666666" fill-rule="evenodd" stroke="none"/>
      <path d="M2.85 -3.25 Q3.0 -2.65 2.75 -1.8 L2.3 0.1 1.95 1.85 1.55 3.3 M5.4 3.7 L6.1 1.5 6.55 -0.25 6.6 -2.15 6.6 -2.7 Q4.9 -1.7 4.65 -1.8 L3.9 -2.4 2.85 -3.25 1.6 -6.95 M-1.75 -6.0 L-1.55 -5.75 Q-1.25 -4.9 -1.45 -3.95 L-1.75 -2.0 -2.1 -0.25 -2.6 1.8" fill="none" stroke="#f1db92" stroke-linecap="round" stroke-linejoin="round" stroke-width="1.0"/>
      <path d="M1.6 -6.95 Q0.55 -7.05 -0.65 -6.55 L-1.75 -6.0 Q-3.4 -5.1 -4.05 -3.75 L-5.35 -0.95 -8.4 -1.7 Q-10.25 -1.7 -10.1 2.3 -10.05 4.15 -8.7 5.65 -7.15 7.4 -3.8 8.7 2.3 11.1 7.35 10.9 9.5 10.6 11.0 9.8 14.05 8.15 14.45 4.3 L10.15 2.75 Q10.2 0.55 9.5 -1.6 7.75 -1.9 6.6 -2.7 L6.15 -3.25 3.5 -6.05 Q2.65 -6.85 1.6 -6.95" fill="none" stroke="#a97e01" stroke-linecap="round" stroke-linejoin="round" stroke-width="1.0"/>
    </g>
  </defs>
</svg>
